storage/app/icons/phosphoricons/regular/globe-stand.svg

<svg xmlns="http://www.w3.org/2000/svg" fill="currentColor" viewBox="0 0 256 256"><path d="M136 184a80 80 0 1 0-80-80 80.09 80.09 0 0 0 80 80m0-144a64 64 0 1 1-64 64 64.07 64.07 0 0 1 64-64m77.77 133.5a8 8 0 0 1-.23 11.32 111.24 111.24 0 0 1-69.54 30.9V232h24a8 8 0 0 1 0 16h-64a8 8 0 0 1 0-16h24v-16.29A112 112 0 0 1 55.18 26.46a8 8 0 1 1 11.54 11.08 96 96 0 0 0 135.74 135.74 8 8 0 0 1 11.31.22"/></svg>

<svg xmlns="http://www.w3.org/2000/svg" viewBox="0 0 256 256" fill="currentColor"><path d="M136,184a80,80,0,1,0-80-80A80.09,80.09,0,0,0,136,184Zm0-144a64,64,0,1,1-64,64A64.07,64.07,0,0,1,136,40Zm77.77,133.5a8,8,0,0,1-.23,11.32A111.24,111.24,0,0,1,144,215.72V232h24a8,8,0,0,1,0,16H104a8,8,0,0,1,0-16h24V215.71A112,112,0,0,1,55.18,26.46,8,8,0,1,1,66.72,37.54,96,96,0,0,0,202.46,173.28,8,8,0,0,1,213.77,173.5Z"/></svg>
